X: 14
T:McQuillen's March
% Nottingham Music Database
S:Bob McQuillen Nov 74, via PR
M:4/4
L:1/4
K:G
[DF]|"G"[G3B3]"/@<.5D7"[Ac]|"G"[B3d3][dg]|"C"[g3/2c'3/2][g/2c'/2] [fa][eg]|"G"[d3g3][dg]|"C"[g3/2c'3/2][g/2c'/2] [fa][eg]|"G"[dg][Bd] [GB][Bd]|\
"D"[Ad][df] "A7"[eg][^ce]|"D7"[df][cd] [Bd][Ac]|
"G"[G3B3]"/@<.5D7"[Ac]|"G"[B3d3][dg]|"C"[g3/2c'3/2][g/2c'/2] [fa][eg]|"G"[d3g3][dg]|"C"[g3/2c'3/2][g/2c'/2] [fa][eg]|"G"[dg][Bd] "C"[Gc][ce]|\
"G"[B2d2] "D7"[A2c2]|"G"[G3B3][DG]||
"G"[B3/2d3/2][c/2e/2] "D7"[Bd][Ac]|"G"[G2B2] [D2G2]|"C"[EG][Gc] [FA][EG]|"D7"[D3F3][DF]|"G"[B3/2d3/2][c/2e/2] "D7"[Bd][Ac]|"Em"[G2B2] [B2e2]|\
"A7"[A^c][GA] [FA][GA]|"D"[A3d3][DF]|
"G"[B3/2d3/2][c/2e/2] "D7"[Bd][Ac]|"G"[G2B2] [D2G2]|"C"[EG][Gc] "D"[FA][Ad]|"G"[G3B3][GB]|"C"[G3/2c3/2][G/2c/2] "D"[FA][EG]|\
"G"[DG][G/2B/2][B/2d/2] "D7"[df][cd]|"G"[B2d2] "D7"[A2c2]|"G"[G3B3]||


